X:136
T:Hammersmith Assembly
M:6/8
L:1/8
B:Thompson's Compleat Collection of 200 Favourite Country Dances, vol. 1 (London, 1757)
Z:Transcribed and edited by Flynn Titford-Mock, 2007
Z:abc's:AK/Fiddler's Companion
K:Bb
B3 fdA|B3 efg|fdB ecA|BFE DCB,|B3 fdA|B3 gab|afc dg=e|fcA F3:|
|:e3 c'ae|d3 efg|fdB Gec|AcB AGF|E3 cAE|Ddf Eeg|fdB ecA|BFD B,3:|

